icons/twitch-filled.svg

<svg width="256" height="256" viewBox="0 0 256 256" fill="none" xmlns="http://www.w3.org/2000/svg">
<rect width="256" height="256" rx="60" fill="#6441A4"/>
<path d="M53.3794 42L41 73.5112V201.807H84.8907V225.44H109.65L132.72 201.807H168.17L216 153.977V42H53.3794ZM199.682 146.1L172.672 173.109H128.781L105.148 196.743V173.109H68.5723V58.3183H199.682V146.1ZM172.672 89.8296V137.659H155.791V89.8296H172.672ZM128.781 89.8296V137.659H112.463V89.8296H128.781Z" fill="white"/>
</svg>

<svg xmlns="http://www.w3.org/2000/svg" width="256" height="256" fill="none"><rect width="256" height="256" fill="#6441A4" rx="60"/><path fill="#fff" d="M53.38 42 41 73.511v128.296h43.89v23.633h24.76l23.07-23.633h35.45l47.83-47.83V42zm146.302 104.1-27.01 27.009h-43.891l-23.633 23.634v-23.634H68.572V58.319h131.11zm-27.01-56.27v47.829h-16.881v-47.83zm-43.891 0v47.829h-16.318v-47.83z"/></svg>
